static/images/blackPlay.svg

<svg width="80" height="80" viewBox="0 0 80 80" fill="none" xmlns="http://www.w3.org/2000/svg">
<g clip-path="url(#clip0_2492_44372)">
<path opacity="0.5" d="M2.66602 40.0001C2.66602 19.5765 19.5758 2.66675 39.9631 2.66675C60.3505 2.66675 77.3327 19.5765 77.3327 40.0001C77.3327 60.4237 60.4229 77.3334 39.9994 77.3334C19.5758 77.3334 2.66602 60.3874 2.66602 40.0001Z" fill="black"/>
<path d="M29.4941 52.7366V27.2995C29.4941 25.5027 31.5807 24.8072 33.1529 25.7273L53.9821 38.0655C55.4819 38.9784 55.5181 41.1011 53.9821 41.985L33.1529 54.3232C31.4358 55.3448 29.4941 54.5043 29.4941 52.751V52.7366Z" fill="white"/>
</g>
<defs>
<clipPath id="clip0_2492_44372">
<rect width="74.6739" height="74.6667" fill="white" transform="translate(2.66602 2.66675)"/>
</clipPath>
</defs>
</svg>

<svg xmlns="http://www.w3.org/2000/svg" width="80" height="80" fill="none"><g clip-path="url(#a)"><path fill="#000" d="M2.666 40c0-20.424 16.91-37.333 37.297-37.333 20.387 0 37.37 16.91 37.37 37.333 0 20.424-16.91 37.333-37.334 37.333C19.576 77.333 2.666 60.387 2.666 40Z" opacity=".5"/><path fill="#fff" d="M29.494 52.737V27.299c0-1.796 2.087-2.492 3.659-1.572l20.83 12.338c1.499.913 1.535 3.036 0 3.92l-20.83 12.338c-1.717 1.022-3.659.181-3.659-1.572v-.014Z"/></g><defs><clipPath id="a"><path fill="#fff" d="M2.666 2.667H77.34v74.667H2.666z"/></clipPath></defs></svg>
